Origami/24x24/apps/dirt-rally.svg

<svg width="24" height="24" version="1" xmlns="http://www.w3.org/2000/svg">
 <rect transform="matrix(0,-1,-1,0,0,0)" x="-22" y="-22" width="20" height="20" rx="1" ry="1" style="fill:#4f4f4f"/>
 <path d="m3 2c-0.554 0-1 0.446-1 1v0.5c0-0.554 0.446-1 1-1h18c0.554 0 1 0.446 1 1v-0.5c0-0.554-0.446-1-1-1h-18z" style="fill:#ffffff;opacity:.1"/>
 <path d="m3 22.5c-0.554 0-1-0.446-1-1v-0.5c0 0.554 0.446 1 1 1h18c0.554 0 1-0.446 1-1v0.5c0 0.554-0.446 1-1 1h-18z" style="opacity:.2"/>
 <path d="m7.5 4.5c-0.277 0-0.5 0.223-0.5 0.5v4.5 4.5c0 0.277 0.223 0.5 0.5 0.5h4.5a5 5 0 0 0 5 -5 5 5 0 0 0 -5 -5h-4.5zm2.701172 3h1.798828a2 2 0 0 1 2 2 2 2 0 0 1 -2 2h-1.798828c-0.1108 0-0.201172-0.090372-0.201172-0.201172v-1.798828-1.7988281c0-0.1107999 0.090372-0.2011719 0.201172-0.2011719z" style="opacity:.2"/>
 <path d="m7.5 4c-0.277 0-0.5 0.223-0.5 0.5v4.5 4.5c0 0.277 0.223 0.5 0.5 0.5h4.5a5 5 0 0 0 5 -5 5 5 0 0 0 -5 -5h-4.5zm2.701172 3h1.798828a2 2 0 0 1 2 2 2 2 0 0 1 -2 2h-1.798828c-0.1108 0-0.201172-0.090372-0.201172-0.201172v-1.798828-1.7988281c0-0.1107999 0.090372-0.2011719 0.201172-0.2011719z" style="fill:#ffffff"/>
 <g transform="translate(0 .5000005)" style="opacity:.2;stroke:#000000">
  <path d="m5.5069175 20.492861-0.9999375-1.499906m-0.9999379-0.499969s1.9998754 0.232235 1.9998754-0.999936c0-1.232173-1.9998754-0.999938-1.9998754-0.999938m4.92e-5 3.999798v-3.999749" style="fill:none;stroke-linecap:round;stroke-width:.999937;stroke:#000000"/>
  <path d="m7.5070895 18.993005h1.999874m-1.999824 1.499905v-2.999811m1.999824 2.999811v-2.999811m-1.999874 0s0-0.999938 0.999937-0.999938 0.999937 0.999938 0.999937 0.999938" style="fill:none;stroke-linecap:round;stroke-linejoin:bevel;stroke-width:.999937;stroke:#000000"/>
  <path d="m11.500018 16.500232v3.999749h1.999874" style="fill:none;stroke-linecap:round;stroke-linejoin:round;stroke-width:.999937;stroke:#000000"/>
  <path d="m15.500018 16.500232v3.999749h1.999874" style="fill:none;stroke-linecap:round;stroke-linejoin:round;stroke-width:.999937;stroke:#000000"/>
  <path d="m19.504166 20.49291v-1.999875m1.499906-1.999874-1.499906 1.999874m-1.499905-1.999874 1.499905 1.999874" style="fill:none;stroke-linecap:round;stroke-width:.999937;stroke:#000000"/>
 </g>
 <path d="m5.5069175 20.492861-0.9999375-1.499906m-0.9999379-0.499969s1.9998754 0.232235 1.9998754-0.999936c0-1.232173-1.9998754-0.999938-1.9998754-0.999938m4.92e-5 3.999798v-3.999749" style="fill:none;stroke-linecap:round;stroke-width:.999937;stroke:#f07400"/>
 <path d="m7.5070895 18.993005h1.999874m-1.999824 1.499905v-2.999811m1.999824 2.999811v-2.999811m-1.999874 0s0-0.999938 0.999937-0.999938 0.999937 0.999938 0.999937 0.999938" style="fill:none;stroke-linecap:round;stroke-linejoin:bevel;stroke-width:.999937;stroke:#f07400"/>
 <path d="m11.500018 16.500232v3.999749h1.999874" style="fill:none;stroke-linecap:round;stroke-linejoin:round;stroke-width:.999937;stroke:#f07400"/>
 <path d="m15.500018 16.500232v3.999749h1.999874" style="fill:none;stroke-linecap:round;stroke-linejoin:round;stroke-width:.999937;stroke:#f07400"/>
 <path d="m19.504166 20.49291v-1.999875m1.499906-1.999874-1.499906 1.999874m-1.499905-1.999874 1.499905 1.999874" style="fill:none;stroke-linecap:round;stroke-width:.999937;stroke:#f07400"/>
</svg>

<svg xmlns="http://www.w3.org/2000/svg" width="24" height="24" version="1">
 <rect style="fill:#4f4f4f" width="20" height="20" x="-22" y="-22" rx="1" ry="1" transform="matrix(0,-1,-1,0,0,0)"/>
 <path style="opacity:0.1;fill:#ffffff" d="M 3,2 C 2.446,2 2,2.446 2,3 l 0,0.5 c 0,-0.554 0.446,-1 1,-1 l 18,0 c 0.554,0 1,0.446 1,1 L 22,3 C 22,2.446 21.554,2 21,2 L 3,2 Z"/>
 <path style="opacity:0.2" d="m 3,22.5 c -0.554,0 -1,-0.446 -1,-1 L 2,21 c 0,0.554 0.446,1 1,1 l 18,0 c 0.554,0 1,-0.446 1,-1 l 0,0.5 c 0,0.554 -0.446,1 -1,1 l -18,0 z"/>
 <path style="opacity:0.2" d="M 7.5,4.5 C 7.223,4.5 7,4.723 7,5 L 7,9.5 7,14 c 0,0.277 0.223,0.5 0.5,0.5 l 4.5,0 a 5,5 0 0 0 5,-5 5,5 0 0 0 -5,-5 l -4.5,0 z m 2.701172,3 L 12,7.5 a 2,2 0 0 1 2,2 2,2 0 0 1 -2,2 l -1.798828,0 C 10.090372,11.5 10,11.409628 10,11.298828 L 10,9.5 10,7.7011719 C 10,7.590372 10.090372,7.5 10.201172,7.5 Z"/>
 <path style="fill:#ffffff" d="M 7.5 4 C 7.223 4 7 4.223 7 4.5 L 7 9 L 7 13.5 C 7 13.777 7.223 14 7.5 14 L 12 14 A 5 5 0 0 0 17 9 A 5 5 0 0 0 12 4 L 7.5 4 z M 10.201172 7 L 12 7 A 2 2 0 0 1 14 9 A 2 2 0 0 1 12 11 L 10.201172 11 C 10.090372 11 10 10.909628 10 10.798828 L 10 9 L 10 7.2011719 C 10 7.090372 10.090372 7 10.201172 7 z"/>
 <g style="opacity:0.2;stroke:#000000" transform="translate(0,0.5000005)">
  <path style="fill:none;stroke:#000000;stroke-width:0.999937;stroke-linecap:round" d="M 5.5069175,20.492861 4.50698,18.992955 M 3.5070421,18.492986 c 0,0 1.9998754,0.232235 1.9998754,-0.999936 0,-1.232173 -1.9998754,-0.999938 -1.9998754,-0.999938 m 4.92e-5,3.999798 0,-3.999749"/>
  <path style="fill:none;stroke:#000000;stroke-width:0.999937;stroke-linecap:round;stroke-linejoin:bevel" d="m 7.5070895,18.993005 1.999874,0 m -1.999824,1.499905 0,-2.999811 m 1.999824,2.999811 0,-2.999811 m -1.999874,0 c 0,0 0,-0.999938 0.999937,-0.999938 0.999937,0 0.999937,0.999938 0.999937,0.999938"/>
  <path style="fill:none;stroke:#000000;stroke-width:0.999937;stroke-linecap:round;stroke-linejoin:round" d="m 11.500018,16.500232 0,3.999749 1.999874,0 0,0"/>
  <path style="fill:none;stroke:#000000;stroke-width:0.999937;stroke-linecap:round;stroke-linejoin:round" d="m 15.500018,16.500232 0,3.999749 1.999874,0 0,0"/>
  <path style="fill:none;stroke:#000000;stroke-width:0.999937;stroke-linecap:round" d="m 19.504166,20.49291 0,-1.999875 m 1.499906,-1.999874 -1.499906,1.999874 m -1.499905,-1.999874 1.499905,1.999874"/>
 </g>
 <g>
  <path style="fill:none;stroke:#f07400;stroke-width:0.999937;stroke-linecap:round" d="M 5.5069175,20.492861 4.50698,18.992955 M 3.5070421,18.492986 c 0,0 1.9998754,0.232235 1.9998754,-0.999936 0,-1.232173 -1.9998754,-0.999938 -1.9998754,-0.999938 m 4.92e-5,3.999798 0,-3.999749"/>
  <path style="fill:none;stroke:#f07400;stroke-width:0.999937;stroke-linecap:round;stroke-linejoin:bevel" d="m 7.5070895,18.993005 1.999874,0 m -1.999824,1.499905 0,-2.999811 m 1.999824,2.999811 0,-2.999811 m -1.999874,0 c 0,0 0,-0.999938 0.999937,-0.999938 0.999937,0 0.999937,0.999938 0.999937,0.999938"/>
  <path style="fill:none;stroke:#f07400;stroke-width:0.999937;stroke-linecap:round;stroke-linejoin:round" d="m 11.500018,16.500232 0,3.999749 1.999874,0 0,0"/>
  <path style="fill:none;stroke:#f07400;stroke-width:0.999937;stroke-linecap:round;stroke-linejoin:round" d="m 15.500018,16.500232 0,3.999749 1.999874,0 0,0"/>
  <path style="fill:none;stroke:#f07400;stroke-width:0.999937;stroke-linecap:round" d="m 19.504166,20.49291 0,-1.999875 m 1.499906,-1.999874 -1.499906,1.999874 m -1.499905,-1.999874 1.499905,1.999874"/>
 </g>
</svg>
